X:1
T:James Gibb editions
T:Audi benigne Conditor - Thermignon
T:#
%%score { 1 | 2 } 3
L:1/8
Q:1/4=138
M:4/4
K:Bb
V:1 treble nm="Soprano I" snm="S"
V:2 treble 
V:3 treble nm="Alto" snm="A"
V:1
"^Audi benigne Conditor""^Delfino Thermignon\n (1861-1944)""^assai mosso" d4 d2 d2 | d4 f4 | %2
w: Au- di be-|ni- gne|
 (e6 dc | B3) B B2 z2 | c4 e4 | (d2 Bc) d2 f2 | c4 c4 | d6 z2 |[M:4/4] d4 (d2 f2) | (e4 d4) | %10
w: Con\- * *|* di- tor|no- stras|pre\- * * ces cum|fle- ti-|bus,|in hoc *|sa\- *|
 c2 e2 (d2 cB | A3) A A4 | (B2 d2 g3 f) | e2 d2 c2 e2 | A6 B2 | !fermata!G8 || d6 d2 | d4 f4 | %18
w: cro je- ju\- * *|* ni- o|fu\- * * *|sas qua- dra- ge-|na- ri-|o.|Mul- tum|qui- dem|
 (e6 dc) | B3 B B2 z2 | c4 e4 | d2 (Bc d2) f2 | c4 c4 | d6 z2 | d4 (d2 f2) | e4 d4 | %26
w: pec\- * *|ca- vi- mus,|sed par-|ce con\- * * fi-|ten- ti-|bus:|ad no\- *|mi- nis|
 (c2 e2 d2) (cB) | A4 A4 | (B2 d2) g3 f | (e2 d2 c2) e2 | A6 B2 | !fermata!G8 || d4 d2 d2 | d4 f4 | %34
w: lau\- * * dem *|tu- i|con\- * fer me-|de\- * * lam|lan- gui-|dis.|Prae- sta be-|a- ta|
 (e6 dc | B3) B B2 B2 | c4 e4 | (d2 Bc d2) f2 | c4 c4 | d6 z2 | d4 d2 f2 | e4 d4 | (c2 e2 d2 cB | %43
w: Tri\- * *|* ni- tas, con-|ce- de|sim- * * * plex|U- ni-|tas;|ut fru- ctu-|o- sa|sint * * * *|
 A4) A4 | (B2 d2) g3 f | (e2 d2 c2) e2 | A6 B2 | !fermata!G8 || (c4 e4 | d4 c2 B2 | A8) | =B8 |] %52
w: tu- is|je\- * ju- ni-|o\- * * rum|mu- ne-|ra.|A\- *|||men.|
V:2
 B4 B2 c2 | d4 c4 | (B4 A4 | G3) G G2 z2 | G4 G4 | (B2 GA) B2 B2 | B4 A4 | B6 z2 | %8
w: Au- di be-|ni- gne|Con\- *|* di- tor|no- stras|pre\- * * ces cum|fle- ti-|bus,|
[M:4/4] z4 z2 G2 | c2 (c4 =B2) | c2 G2 G4- | G3 ^F F4 | (G2 B2 d2 c2) | B2 A2 G2 G2 | G4 ^F4 | %15
w: in|hoc sa\- *|cro je- ju\-|* ni- o|fu\- * * *|sas qua- dra- ge-|na- ri-|
 !fermata!G8 || B6 c2 | d4 c4 | (B4 A4) | G3 G G2 z2 | G4 G4 | B2 (GA B2) B2 | B4 A4 | B6 z2 | %24
w: o.|Mul- tum|qui- dem|pec\- *|ca- vi- mus,|sed par-|ce con\- * * fi-|ten- ti-|bus:|
 z4 z2 G2 | c2 (c4 =B2) | c2 G2 G4 | (G3 ^F) F4 | (G2 B2) d2 c2 | (B2 A2 G2) G2 | G4 ^F4 | %31
w: ad|no- mi\- *|nis lau- dem|tu\- * i|con\- * fer me-|de\- * * lam|lan- gui-|
 !fermata!G8 || B4 B2 c2 | d4 c4 | (B4 A4 | G3) G G2 G2 | G4 G4 | (B2 GA B2) B2 | B4 A4 | B6 z2 | %40
w: dis.|Prae- sta be-|a- ta|Tri\- *|* ni- tas, con-|ce- de|sim- * * * plex|U- ni-|tas;|
 z4 z2 G2 | c2 c4 =B2 | c2 G2 (G4- | G3 ^F) F4 | (G2 B2) d2 c2 | (B2 A2 G2) G2 | G4 ^F4 | %47
w: ut|fru- ctu- o-|sa sint tu\-|* * is|je\- * ju- ni-|o\- * * rum|mu- ne-|
 !fermata!G8 || (G8- | G8 | G4 ^F4) | G8 |] %52
w: ra.|A\-|||men.|
V:3
 G4 G2 A2 | B4 A4 | (G4 ^F4 | G3) G G2 z2 | E4 C4 | (G3 F) B,2 D2 | F4 F4 | B,6 z2 |[M:4/4] z8 | %9
w: Au- di be-|ni- gne|Con\- *|* di- tor|no- stras|pre\- * ces cum|fle- ti-|bus,||
 z2 C2 G2 F2 | E2 C2 (B,2 C2 | D3) D D4 | (G4 B2 A2) | G2 F2 E2 C2 | D4 D4 | !fermata!G8 || G6 A2 | %17
w: in hoc sa-|cro je- ju\- *|* ni- o|fu\- * *|sas qua- dra- ge-|na- ri-|o.|Mul- tum|
 B4 A4 | (G4 ^F4) | G3 G G2 z2 | E4 (C4 | G3) F B,2 D2 | F4 F4 | B,6 z2 | z8 | z2 C2 G2 F2 | %26
w: qui- dem|pec\- *|ca- vi- mus,|sed par\-|* ce con- fi-|ten- ti-|bus:||ad no- mi-|
 E2 (C2 B,2) C2 | D4 D4 | G4 B2 A2 | (G2 F2 E2) C2 | D4 D4 | !fermata!G8 || G4 G2 A2 | B4 A4 | %34
w: nis lau\- * dem|tu- i|con- fer me-|de\- * * lam|lan- gui-|dis.|Prae- sta be-|a- ta|
 (G4 ^F4 | G3) G G2 G2 | E4 C4 | (G3 F B,2) D2 | F4 F4 | B,6 z2 | z8 | z2 C2 G2 F2 | %42
w: Tri\- *|* ni- tas, con-|ce- de|sim- * * plex|U- ni-|tas;||ut fru- ctu-|
 E2 (C2 B,2) C2 | D4 D4 | G4 B2 A2 | (G2 F2 E2) C2 | D4 D4 | !fermata!G8 || (E4 C4 | D8- | D8) | %51
w: o- sa * sint|tu- is|je- ju- ni-|o\- * * rum|mu- ne-|ra.|A\- *|||
 [G,G]8 |] %52
w: men.|

